X: 32
M:2/4
L:1/16
K:Dm
{^g}va4 {g}a3=g|fedf e^cA2|{^g}a4 {g}a3=g|fed^c defg|
{^g}a4 {g}a3=g|fedf e^cAc|defg afge|fde^c d4::
.F4-.F2(AB)|cfag fdcA|FGFE FGAB|c=Bdc G4 |


